svgs/sharp-solid/road-lock.svg

<svg xmlns="http://www.w3.org/2000/svg" viewBox="0 0 640 512"><!--! Font Awesome Pro 6.6.0 by @fontawesome - https://fontawesome.com License - https://fontawesome.com/license (Commercial License) Copyright 2024 Fonticons, Inc. --><path d="M288 32L160 32 32 480l256 0 0-64 0-32 64 0 0 32 0 64 32 0 0-192 32 0 0-16c0-58.1 44.2-105.8 100.7-111.4L480 32 352 32l0 64 0 32-64 0 0-32 0-64zm64 192l0 64 0 32-64 0 0-32 0-64 0-32 64 0 0 32zm176 16c17.7 0 32 14.3 32 32l0 48-64 0 0-48c0-17.7 14.3-32 32-32zm-80 32l0 48-32 0 0 192 224 0 0-192-32 0 0-48c0-44.2-35.8-80-80-80s-80 35.8-80 80z"/></svg>

<svg xmlns="http://www.w3.org/2000/svg" viewBox="0 0 640 512"><!--! Font Awesome Pro 6.5.2 by @fontawesome - https://fontawesome.com License - https://fontawesome.com/license (Commercial License) Copyright 2024 Fonticons, Inc. --><path d="M288 32H160L32 480H288V416 384h64v32 64h32l0-192h32V272c0-58.1 44.2-105.8 100.7-111.4L480 32H352V96v32H288V96 32zm64 192v64 32H288V288 224 192h64v32zm176 16c17.7 0 32 14.3 32 32v48H496V272c0-17.7 14.3-32 32-32zm-80 32v48H416V512H640V320H608V272c0-44.2-35.8-80-80-80s-80 35.8-80 80z"/></svg>
